public/background/footer.svg

<svg xmlns="http://www.w3.org/2000/svg" width="3030" height="377" fill="none" preserveAspectRatio="none"><path fill="#F5F5F5" d="M0 0h3030v377H0z"/><path fill="#EBEBEA" d="M-7834-14877c0-1.1.9-2 2-2H3241c1.1 0 2 .9 2 2v12169c0 1.1-.9 2-2 2H-7832c-1.1 0-2-.9-2-2z"/><path fill="#000" fill-opacity=".1" d="M-7832-14878H3241v-2H-7832zm11074 1v12169h2v-12169zm-1 12170H-7832v2H3241zm-11074-1v-12169h-2v12169zm1 1c-.55 0-1-.45-1-1h-2c0 1.66 1.34 3 3 3zm11074-1c0 .55-.45 1-1 1v2c1.66 0 3-1.34 3-3zm-1-12170c.55 0 1 .4 1 1h2c0-1.7-1.34-3-3-3zm-11073-2c-1.66 0-3 1.3-3 3h2c0-.6.45-1 1-1z"/><g clip-path="url(#a)"><path fill="#fff" d="M6-18466.5h3024v18846H6z"/><g clip-path="url(#b)"><path fill="url(#c)" d="M0 0h3024v10896H0z" transform="translate(6 -10516)"/><path fill="url(#d)" d="M0 0h3024v2208H0z" transform="matrix(1 0 0 -1 6 380)"/><path stroke="#0DAEF1" stroke-width="8" d="M1096.55-106 491.569 434m773.561-540L920.375 434m513.335-540-112.14 540m280.72-540 112.14 540m56.44-540 344.75 540m-176.16-540 604.98 540m485.56 0-921.97-540H927.97L6.003 434M6 434h3024M190.398 326H2845.61M374.788 218H2661.21M559.186 110H2476.82M743.572 2H2292.42" opacity=".5"/></g></g><defs><linearGradient id="c" x1="1512" x2="1512" y1="-1074.21" y2="4413.52" gradientUnits="userSpaceOnUse"><stop stop-color="#0796D3" stop-opacity=".19"/><stop offset="1" stop-color="#FFCDF7" stop-opacity=".1"/></linearGradient><linearGradient id="d" x1="1512" x2="1512" y1="0" y2="1847.72" gradientUnits="userSpaceOnUse"><stop stop-color="#FFCDF7"/><stop offset="1" stop-color="#BAE8FC" stop-opacity="0"/></linearGradient><clipPath id="a"><path fill="#fff" d="M6-18466.5h3024v18846H6z"/></clipPath><clipPath id="b"><path fill="#fff" d="M6-10516h3024V380H6z"/></clipPath></defs></svg>

<svg width="3030" height="377" viewBox="0 0 3030 377" preserveAspectRatio="none" fill="none"
     xmlns="http://www.w3.org/2000/svg">
    <rect width="3030" height="377" fill="#F5F5F5"/>
    <path d="M-7834 -14877C-7834 -14878.1 -7833.1 -14879 -7832 -14879H3241C3242.1 -14879 3243 -14878.1 3243 -14877V-2708C3243 -2706.9 3242.1 -2706 3241 -2706H-7832C-7833.1 -2706 -7834 -2706.9 -7834 -2708V-14877Z"
          fill="#EBEBEA"/>
    <path d="M-7832 -14878H3241V-14880H-7832V-14878ZM3242 -14877V-2708H3244V-14877H3242ZM3241 -2707H-7832V-2705H3241V-2707ZM-7833 -2708V-14877H-7835V-2708H-7833ZM-7832 -2707C-7832.55 -2707 -7833 -2707.45 -7833 -2708H-7835C-7835 -2706.34 -7833.66 -2705 -7832 -2705V-2707ZM3242 -2708C3242 -2707.45 3241.55 -2707 3241 -2707V-2705C3242.66 -2705 3244 -2706.34 3244 -2708H3242ZM3241 -14878C3241.55 -14878 3242 -14877.6 3242 -14877H3244C3244 -14878.7 3242.66 -14880 3241 -14880V-14878ZM-7832 -14880C-7833.66 -14880 -7835 -14878.7 -7835 -14877H-7833C-7833 -14877.6 -7832.55 -14878 -7832 -14878V-14880Z"
          fill="black" fill-opacity="0.1"/>
    <g clip-path="url(#clip0_2_2)">
        <rect width="3024" height="18846" transform="translate(6 -18466.5)" fill="white"/>
        <g clip-path="url(#clip1_2_2)">
            <rect width="3024" height="10896" transform="translate(6 -10516)" fill="url(#paint0_linear_2_2)"/>
            <rect width="3024" height="2208" transform="matrix(1 0 0 -1 6 380)" fill="url(#paint1_linear_2_2)"/>
            <path opacity="0.5"
                  d="M1096.55 -106L491.569 434M1265.13 -106L920.375 434M1433.71 -106L1321.57 434M1602.29 -106L1714.43 434M1770.87 -106L2115.62 434M1939.46 -106L2544.44 434M3030 434L2108.03 -106H927.97L6.00334 434M6 434H3030M190.398 326H2845.61M374.788 218H2661.21M559.186 110H2476.82M743.572 1.99994H2292.42"
                  stroke="#0DAEF1" stroke-width="8"/>
        </g>
    </g>
    <defs>
        <linearGradient id="paint0_linear_2_2" x1="1512" y1="-1074.21" x2="1512" y2="4413.52"
                        gradientUnits="userSpaceOnUse">
            <stop stop-color="#0796D3" stop-opacity="0.19"/>
            <stop offset="1" stop-color="#FFCDF7" stop-opacity="0.1"/>
        </linearGradient>
        <linearGradient id="paint1_linear_2_2" x1="1512" y1="0" x2="1512" y2="1847.72" gradientUnits="userSpaceOnUse">
            <stop stop-color="#FFCDF7"/>
            <stop offset="1" stop-color="#BAE8FC" stop-opacity="0"/>
        </linearGradient>
        <clipPath id="clip0_2_2">
            <rect width="3024" height="18846" fill="white" transform="translate(6 -18466.5)"/>
        </clipPath>
        <clipPath id="clip1_2_2">
            <rect width="3024" height="10896" fill="white" transform="translate(6 -10516)"/>
        </clipPath>
    </defs>
</svg>
